X:15
T:Mist on the Mountain, The
T:Mist Covered Mountains
C:Junior Crehan
R:jig
E:10
I:speed 300
M:6/8
K:ADor
G|EAA ABd|e2 A AGE|~G3 GAB|dBA GED|\
EAA ABd|e2A AGE|efg dBG|BAG A2:|*
a|age a2b|age edB|AGE G2A|BAB GED|\
age a2b|age edB|AGE G2A|BAG A3|*
age a2b|age edB|AGE G2A|BAB GED|\
EDE G2A|BAG ABd|efg dBG|BAG A2||**
<end>
<start>
